public/img/services/solidity.svg

<svg viewBox="0 0 523.9 813" xmlns="http://www.w3.org/2000/svg"><path d="m391.9 0-130.7 232.3h-261.2l130.6-232.3z" opacity=".45"/><path d="m261.2 232.3h261.3l-130.6-232.3h-261.3z" opacity=".6"/><path d="m130.6 464.5 130.6-232.2-130.6-232.3-130.6 232.3z" opacity=".8"/><path d="m131.9 813 130.7-232.3h261.3l-130.7 232.3z" opacity=".45"/><path d="m262.6 580.7h-261.3l130.6 232.3h261.3z" opacity=".6"/><path d="m393.2 348.5-130.6 232.2 130.6 232.3 130.7-232.3z" opacity=".8"/></svg>

<svg viewBox="0 0 523.9 813" xmlns="http://www.w3.org/2000/svg"><path d="M391.9 0L261.2 232.3H0L130.6 0z" opacity=".45"/><path d="M261.2 232.3h261.3L391.9 0H130.6z" opacity=".6"/><path d="M130.6 464.5l130.6-232.2L130.6 0 0 232.3z" opacity=".8"/><path d="M131.9 813l130.7-232.3h261.3L393.2 813z" opacity=".45"/><path d="M262.6 580.7H1.3L131.9 813h261.3z" opacity=".6"/><path d="M393.2 348.5L262.6 580.7 393.2 813l130.7-232.3z" opacity=".8"/></svg>
